packages/vibrant-icons/assets/icons/PaperPlane/Thin.svg

<svg width="24" height="24" viewBox="0 0 24 24" fill="none" xmlns="http://www.w3.org/2000/svg">
<path fill-rule="evenodd" clip-rule="evenodd" d="M9.75606 11.4968L12.738 9.84016C12.8345 9.78652 12.8693 9.66476 12.8157 9.5682L12.1843 8.4318C12.1307 8.33524 12.0089 8.30045 11.9124 8.35409L8.96157 9.99343L4.60227 4.7H19.9975L11.6237 18.6562L9.75606 11.4968ZM11.2449 22.5919C11.1537 22.7438 10.9246 22.7109 10.8799 22.5395L8 11.5L1.26941 3.32714C1.16196 3.19667 1.25478 3 1.4238 3H22.6468C22.8022 3 22.8982 3.16959 22.8183 3.3029L11.2449 22.5919Z" fill="#0C0C0C"/>
</svg>

<svg xmlns="http://www.w3.org/2000/svg" width="24" height="24" fill="none"><path fill="#0C0C0C" fill-rule="evenodd" d="m9.756 11.497 2.982-1.657a.2.2 0 0 0 .078-.272l-.632-1.136a.2.2 0 0 0-.272-.078l-2.95 1.64L4.602 4.7h15.395l-8.373 13.956zm1.489 11.095a.2.2 0 0 1-.365-.052L8 11.5 1.27 3.327A.2.2 0 0 1 1.423 3h21.223a.2.2 0 0 1 .171.303z" clip-rule="evenodd"/></svg>
